assets/icons/qvision/source.svg

<svg xmlns="http://www.w3.org/2000/svg" enable-background="new 0 0 24 24" height="24" viewBox="0 0 24 24" width="24"><g><rect fill="none" height="24" width="24"/><path d="M20,6h-8l-2-2H4C2.9,4,2.01,4.9,2.01,6L2,18c0,1.1,0.9,2,2,2h16c1.1,0,2-0.9,2-2V8C22,6.9,21.1,6,20,6z M14,16H6v-2h8V16z M18,12H6v-2h12V12z"/></g></svg>

<svg width="24" height="24" viewBox="0 0 24 24" fill="none" xmlns="http://www.w3.org/2000/svg">
<g clip-path="url(#clip0_147_4767)">
<path d="M20 6H12L10 4H4C2.9 4 2.01 4.9 2.01 6L2 18C2 19.1 2.9 20 4 20H20C21.1 20 22 19.1 22 18V8C22 6.9 21.1 6 20 6ZM14 16H6V14H14V16ZM18 12H6V10H18V12Z" fill="#323232"/>
</g>
<defs>
<clipPath id="clip0_147_4767">
<rect width="24" height="24" fill="white"/>
</clipPath>
</defs>
</svg>
